; generated by Slic3r 1.1.7 on 2015-06-10 at 14:30:40

; Profile for Sharebot !

; perimeters extrusion width = 0.38mm
; infill extrusion width = 0.70mm
; solid infill extrusion width = 0.50mm
; top infill extrusion width = 0.35mm
; support material extrusion width = 0.30mm

G21 ; set units to millimeters
M107
M190 S40 ; wait for bed temperature to be reached
M104 S230 ; set temperature
M204 S1800
G28 ;Home all axis
T0
M106 S127 ; EXTRUDER FAN ON
G1 Z10 F1000
G92 E0
M117 Printing...
M109 S230 ; wait for temperature to be reached
G90 ; use absolute coordinates
G92 E0
M82 ; use absolute distances for extrusion
G1 Z0.300 F6000.000
G1 F1800.000 E-2.00000
G92 E0
G1 X62.851 Y42.420 F6000.000
G1 E2.00000 F1800.000
G1 X64.587 Y41.044 E2.15097 F1200.000
G1 X67.500 Y40.315 E2.35562
G1 X70.500 Y40.315 E2.56005
G1 X72.680 Y40.711 E2.71102
G1 X74.580 Y41.851 E2.86199 F1200.000
G1 X75.956 Y43.587 E3.01296
G1 X76.685 Y46.500 E3.21761
G1 X76.685 Y53.500 E3.69462
G1 X76.289 Y55.680 E3.84559
G1 X75.149 Y57.580 E3.99656
G1 X73.413 Y58.956 E4.14753
G1 X70.500 Y59.685 E4.35218
G1 X67.500 Y59.685 E4.55661
G1 X65.320 Y59.289 E4.70759
G1 X63.420 Y58.149 E4.85856
G1 X62.044 Y56.413 E5.00953
G1 X61.315 Y53.500 E5.21418
G1 X61.315 Y46.500 E5.69118
G1 X61.711 Y44.320 E5.84215
G1 X62.824 Y42.465 E5.98955
G1 F1800.000 E3.98955
G92 E0
G1 X63.334 Y42.727 F6000.000
G1 E2.00000 F1800.000
G1 X63.391 Y42.638 E2.00722 F1200.000
G1 X65.102 Y41.396 E2.15131
G1 X67.500 Y40.861 E2.31871
G1 X70.500 Y40.861 E2.52314
G1 X72.577 Y41.257 E2.66723
G1 X74.362 Y42.391 E2.81132 F1200.000
G1 X75.604 Y44.102 E2.95542
G1 X76.139 Y46.500 E3.12282
G1 X76.139 Y53.500 E3.59982
G1 X75.743 Y55.577 E3.74392
G1 X74.609 Y57.362 E3.88801
G1 X72.898 Y58.604 E4.03210
G1 X70.500 Y59.139 E4.19950
G1 X67.500 Y59.139 E4.40393
G1 X65.423 Y58.743 E4.54802
G1 X63.638 Y57.609 E4.69212
G1 X62.396 Y55.898 E4.83621
G1 X61.861 Y53.500 E5.00361
G1 X61.861 Y46.500 E5.48061
G1 X62.257 Y44.423 E5.62471
G1 X63.306 Y42.772 E5.75800
G1 F1800.000 E3.75800
G92 E0
G1 X63.808 Y43.048 F6000.000
G1 E2.00000 F1800.000
G1 X63.930 Y42.868 E2.01483 F1200.000
G1 X65.612 Y41.770 E2.15170
G1 X67.500 Y41.407 E2.28272
G1 X70.500 Y41.407 E2.48715
G1 X72.469 Y41.803 E2.62402
G1 X74.132 Y42.930 E2.76088 F1200.000
G1 X75.230 Y44.612 E2.89775
G1 X75.593 Y46.500 E3.02877
G1 X75.593 Y53.500 E3.50578
G1 X75.197 Y55.469 E3.64264
G1 X74.070 Y57.132 E3.77951
G1 X72.388 Y58.230 E3.91638
G1 X70.500 Y58.593 E4.04740
G1 X67.500 Y58.593 E4.25183
G1 X65.531 Y58.197 E4.38870
G1 X63.868 Y57.070 E4.52557
G1 X62.770 Y55.388 E4.66243
G1 X62.407 Y53.500 E4.79345
G1 X62.407 Y46.500 E5.27046
G1 X62.803 Y44.531 E5.40733
G1 X63.778 Y43.092 E5.52579
G1 F1800.000 E3.52579
G92 E0
G1 X64.269 Y43.385 F6000.000
G1 E2.00000 F1800.000
G1 X64.467 Y43.113 E2.02292 F1200.000
G1 X66.113 Y42.170 E2.15216
G1 X67.500 Y41.954 E2.24782
G1 X70.500 Y41.954 E2.45226
G1 X72.355 Y42.349 E2.58150
G1 X73.887 Y43.467 E2.71074 F1200.000
G1 X74.830 Y45.113 E2.83998
G1 X75.046 Y46.500 E2.93564
G1 X75.046 Y53.500 E3.41265
G1 X74.651 Y55.355 E3.54189
G1 X73.533 Y56.887 E3.67113
G1 X71.887 Y57.830 E3.80037
G1 X70.500 Y58.046 E3.89604
G1 X67.500 Y58.046 E4.10047
G1 X65.645 Y57.651 E4.22971
G1 X64.113 Y56.533 E4.35895
G1 X63.170 Y54.887 E4.48819
G1 X62.954 Y53.500 E4.58386
G1 X62.954 Y46.500 E5.06087
G1 X63.349 Y44.645 E5.19011
G1 X64.238 Y43.427 E5.29285
G1 F1800.000 E3.29285
G92 E0
G1 X69.654 Y52.654 F6000.000
G1 E2.00000 F1800.000
G1 X68.346 Y52.654 E2.08908 F1200.000
G1 X68.346 Y51.346 E2.17817
G1 X69.654 Y51.346 E2.26725
G1 X69.654 Y52.601 E2.35276
G1 F1800.000 E0.35276
G92 E0
G1 X70.200 Y53.200 F6000.000
G1 E2.00000 F1800.000
G1 X67.800 Y53.200 E2.16354 F1200.000
G1 X67.800 Y50.800 E2.32709
G1 X70.200 Y50.800 E2.49063
G1 X70.200 Y53.148 E2.65060
G1 F1800.000 E0.65060
G92 E0
G1 X69.897 Y53.025 F6000.000
G1 X68.722 Y52.238 F6000.000
G1 E2.00000 F1800.000
G1 X68.762 Y52.278 E2.00385 F1200.000
G1 X69.278 Y51.762 E2.05350
G1 X69.238 Y51.722 E2.05735
G1 F1800.000 E0.05735
G92 E0
G1 X69.654 Y48.654 F6000.000
G1 E2.00000 F1800.000
G1 X68.346 Y48.654 E2.08908 F1200.000
G1 X68.346 Y47.346 E2.17817
G1 X69.654 Y47.346 E2.26725
G1 X69.654 Y48.601 E2.35276
G1 F1800.000 E0.35276
G92 E0
G1 X70.200 Y49.200 F6000.000
G1 E2.00000 F1800.000
G1 X67.800 Y49.200 E2.16354 F1200.000
G1 X67.800 Y46.800 E2.32709
G1 X70.200 Y46.800 E2.49063
G1 X70.200 Y49.148 E2.65060
G1 F1800.000 E0.65060
G92 E0
G1 X69.897 Y49.025 F6000.000
G1 X68.722 Y48.238 F6000.000
G1 E2.00000 F1800.000
G1 X68.762 Y48.278 E2.00385 F1200.000
G1 X69.278 Y47.762 E2.05350
G1 X69.238 Y47.722 E2.05735
M104 S215 ; set temperature
G1 Z0.500 F6000.000
G1 F1800.000 E0.05735
G92 E0
G1 X67.676 Y50.676 F6000.000
G1 E2.00000 F1800.000
G1 X67.800 Y50.650 E2.00394 F900.000
G1 X70.200 Y50.650 E2.07849
G1 X70.324 Y50.676 E2.08243
G1 X70.350 Y50.800 E2.08637
G1 X70.350 Y53.200 E2.16092
G1 X70.324 Y53.324 E2.16486
G1 X70.200 Y53.350 E2.16881
G1 X67.800 Y53.350 E2.24335
G1 X67.676 Y53.324 E2.24730
G1 X67.650 Y53.200 E2.25124
G1 X67.650 Y50.800 E2.32579
G1 X67.676 Y50.676 E2.32973
G1 F1800.000 E0.32973
G92 E0
G1 X67.851 Y46.851 F6000.000
G1 E2.00000 F1800.000
G1 X68.100 Y46.800 E2.00788 F900.000
G1 X69.900 Y46.800 E2.06379
G1 X70.149 Y46.851 E2.07168
G1 X70.200 Y47.100 E2.07956
G1 X70.200 Y48.900 E2.13547
G1 X70.149 Y49.149 E2.14336
G1 X69.900 Y49.200 E2.15124
G1 X68.100 Y49.200 E2.20715
G1 X67.851 Y49.149 E2.21504
G1 X67.800 Y48.900 E2.22292
G1 X67.800 Y47.100 E2.27883
G1 X67.851 Y46.851 E2.28671
M106 S255
G1 Z0.700 F6000.000
G1 F1800.000 E0.28671
G92 E0
G1 X67.676 Y50.676 F6000.000
G1 E2.00000 F1800.000
G1 X67.800 Y50.650 E2.00394 F900.000
G1 X70.200 Y50.650 E2.07849
G1 X70.324 Y50.676 E2.08243
G1 X70.350 Y50.800 E2.08637
G1 X70.350 Y53.200 E2.16092
G1 X70.324 Y53.324 E2.16486
G1 X70.200 Y53.350 E2.16881
G1 X67.800 Y53.350 E2.24335
G1 X67.676 Y53.324 E2.24730
G1 X67.650 Y53.200 E2.25124
G1 X67.650 Y50.800 E2.32579
G1 X67.676 Y50.676 E2.32973
G1 F1800.000 E0.32973
G92 E0
G1 X67.851 Y46.851 F6000.000
G1 E2.00000 F1800.000
G1 X68.100 Y46.800 E2.00788 F900.000
G1 X69.900 Y46.800 E2.06379
G1 X70.149 Y46.851 E2.07168
G1 X70.200 Y47.100 E2.07956
G1 X70.200 Y48.900 E2.13547
G1 X70.149 Y49.149 E2.14336
G1 X69.900 Y49.200 E2.15124
G1 X68.100 Y49.200 E2.20715
G1 X67.851 Y49.149 E2.21504
G1 X67.800 Y48.900 E2.22292
G1 X67.800 Y47.100 E2.27883
G1 X67.851 Y46.851 E2.28671
G1 Z0.900 F6000.000
G1 F1800.000 E0.28671
G92 E0
G1 X67.676 Y50.676 F6000.000
G1 E2.00000 F1800.000
G1 X67.800 Y50.650 E2.00394 F900.000
G1 X70.200 Y50.650 E2.07849
G1 X70.324 Y50.676 E2.08243
G1 X70.350 Y50.800 E2.08637
G1 X70.350 Y53.200 E2.16092
G1 X70.324 Y53.324 E2.16486
G1 X70.200 Y53.350 E2.16881
G1 X67.800 Y53.350 E2.24335
G1 X67.676 Y53.324 E2.24730
G1 X67.650 Y53.200 E2.25124
G1 X67.650 Y50.800 E2.32579
G1 X67.676 Y50.676 E2.32973
G1 F1800.000 E0.32973
G92 E0
G1 X67.851 Y46.851 F6000.000
G1 E2.00000 F1800.000
G1 X68.100 Y46.800 E2.00788 F900.000
G1 X69.900 Y46.800 E2.06379
G1 X70.149 Y46.851 E2.07168
G1 X70.200 Y47.100 E2.07956
G1 X70.200 Y48.900 E2.13547
G1 X70.149 Y49.149 E2.14336
G1 X69.900 Y49.200 E2.15124
G1 X68.100 Y49.200 E2.20715
G1 X67.851 Y49.149 E2.21504
G1 X67.800 Y48.900 E2.22292
G1 X67.800 Y47.100 E2.27883
G1 X67.851 Y46.851 E2.28671
G1 Z1.100 F6000.000
G1 F1800.000 E0.28671
G92 E0
G1 X67.676 Y50.676 F6000.000
G1 E2.00000 F1800.000
G1 X67.800 Y50.650 E2.00394 F900.000
G1 X70.200 Y50.650 E2.07849
G1 X70.324 Y50.676 E2.08243
G1 X70.350 Y50.800 E2.08637
G1 X70.350 Y53.200 E2.16092
G1 X70.324 Y53.324 E2.16486
G1 X70.200 Y53.350 E2.16881
G1 X67.800 Y53.350 E2.24335
G1 X67.676 Y53.324 E2.24730
G1 X67.650 Y53.200 E2.25124
G1 X67.650 Y50.800 E2.32579
G1 X67.676 Y50.676 E2.32973
G1 F1800.000 E0.32973
G92 E0
G1 X67.851 Y46.851 F6000.000
G1 E2.00000 F1800.000
G1 X68.100 Y46.800 E2.00788 F900.000
G1 X69.900 Y46.800 E2.06379
G1 X70.149 Y46.851 E2.07168
G1 X70.200 Y47.100 E2.07956
G1 X70.200 Y48.900 E2.13547
G1 X70.149 Y49.149 E2.14336
G1 X69.900 Y49.200 E2.15124
G1 X68.100 Y49.200 E2.20715
G1 X67.851 Y49.149 E2.21504
G1 X67.800 Y48.900 E2.22292
G1 X67.800 Y47.100 E2.27883
G1 X67.851 Y46.851 E2.28671
G1 Z1.300 F6000.000
G1 F1800.000 E0.28671
G92 E0
G1 X67.676 Y50.676 F6000.000
G1 E2.00000 F1800.000
G1 X67.800 Y50.650 E2.00394 F900.000
G1 X70.200 Y50.650 E2.07849
G1 X70.324 Y50.676 E2.08243
G1 X70.350 Y50.800 E2.08637
G1 X70.350 Y53.200 E2.16092
G1 X70.324 Y53.324 E2.16486
G1 X70.200 Y53.350 E2.16881
G1 X67.800 Y53.350 E2.24335
G1 X67.676 Y53.324 E2.24730
G1 X67.650 Y53.200 E2.25124
G1 X67.650 Y50.800 E2.32579
G1 X67.676 Y50.676 E2.32973
G1 F1800.000 E0.32973
G92 E0
G1 X68.017 Y47.017 F6000.000
G1 E2.00000 F1800.000
G1 X68.100 Y47.000 E2.00263 F900.000
G1 X69.900 Y47.000 E2.05854
G1 X69.983 Y47.017 E2.06117
G1 X70.000 Y47.100 E2.06379
G1 X70.000 Y48.900 E2.11971
G1 X69.983 Y48.983 E2.12233
G1 X69.900 Y49.000 E2.12496
G1 X68.100 Y49.000 E2.18087
G1 X68.017 Y48.983 E2.18350
G1 X68.000 Y48.900 E2.18613
G1 X68.000 Y47.100 E2.24204
G1 X68.017 Y47.017 E2.24467
G1 Z1.500 F6000.000
G1 F1800.000 E0.24467
G92 E0
G1 X67.676 Y50.676 F6000.000
G1 E2.00000 F1800.000
G1 X67.800 Y50.650 E2.00394 F900.000
G1 X70.200 Y50.650 E2.07849
G1 X70.324 Y50.676 E2.08243
G1 X70.350 Y50.800 E2.08637
G1 X70.350 Y53.200 E2.16092
G1 X70.324 Y53.324 E2.16486
G1 X70.200 Y53.350 E2.16881
G1 X67.800 Y53.350 E2.24335
G1 X67.676 Y53.324 E2.24730
G1 X67.650 Y53.200 E2.25124
G1 X67.650 Y50.800 E2.32579
G1 X67.676 Y50.676 E2.32973
G1 F1800.000 E0.32973
G92 E0
G1 X68.017 Y47.017 F6000.000
G1 E2.00000 F1800.000
G1 X68.100 Y47.000 E2.00263 F900.000
G1 X69.900 Y47.000 E2.05854
G1 X69.983 Y47.017 E2.06117
G1 X70.000 Y47.100 E2.06379
G1 X70.000 Y48.900 E2.11971
G1 X69.983 Y48.983 E2.12233
G1 X69.900 Y49.000 E2.12496
G1 X68.100 Y49.000 E2.18087
G1 X68.017 Y48.983 E2.18350
G1 X68.000 Y48.900 E2.18613
G1 X68.000 Y47.100 E2.24204
G1 X68.017 Y47.017 E2.24467
G1 Z1.700 F6000.000
G1 F1800.000 E0.24467
G92 E0
G1 X67.676 Y50.676 F6000.000
G1 E2.00000 F1800.000
G1 X67.800 Y50.650 E2.00394 F900.000
G1 X70.200 Y50.650 E2.07849
G1 X70.324 Y50.676 E2.08243
G1 X70.350 Y50.800 E2.08637
G1 X70.350 Y53.200 E2.16092
G1 X70.324 Y53.324 E2.16486
G1 X70.200 Y53.350 E2.16881
G1 X67.800 Y53.350 E2.24335
G1 X67.676 Y53.324 E2.24730
G1 X67.650 Y53.200 E2.25124
G1 X67.650 Y50.800 E2.32579
G1 X67.676 Y50.676 E2.32973
G1 Z1.900 F6000.000
G1 X67.800 Y50.650 E2.33367 F900.000
G1 X70.200 Y50.650 E2.40822
G1 X70.324 Y50.676 E2.41216
G1 X70.350 Y50.800 E2.41610
G1 X70.350 Y53.200 E2.49065
G1 X70.324 Y53.324 E2.49459
G1 X70.200 Y53.350 E2.49853
G1 X67.800 Y53.350 E2.57308
G1 X67.676 Y53.324 E2.57702
G1 X67.650 Y53.200 E2.58096
G1 X67.650 Y50.800 E2.65551
G1 X67.676 Y50.676 E2.65945
G1 F1800.000 E0.65945
G92 E0
M107
M104 S0 T0
M190 S0
G1 Z200 F1000
G1 X140 Y100 F16000
M84
; filament used = 21.0mm (0.1cm3)

; avoid_crossing_perimeters = 0
; bed_size = 112,100
; bed_temperature = 40
; bridge_acceleration = 0
; bridge_fan_speed = 100
; bridge_flow_ratio = 0.9
; brim_width = 0
; complete_objects = 0
; cooling = 1
; default_acceleration = 0
; disable_fan_first_layers = 2
; duplicate_distance = 6
; end_gcode = M104 S0 T0\nM190 S0\nG1 Z200 F1000\nG1 X140 Y100 F16000\nM84
; external_perimeters_first = 0
; extruder_clearance_height = 20
; extruder_clearance_radius = 20
; extruder_offset = 0x0
; extrusion_axis = E
; extrusion_multiplier = 1
; fan_always_on = 1
; fan_below_layer_time = 60
; filament_diameter = 1.75
; first_layer_acceleration = 0
; first_layer_bed_temperature = 40
; first_layer_extrusion_width = 0.6
; first_layer_speed = 20
; first_layer_temperature = 230
; g0 = 0
; gcode_arcs = 0
; gcode_comments = 0
; gcode_flavor = reprap
; infill_acceleration = 0
; infill_first = 0
; layer_gcode = 
; max_fan_speed = 100
; min_fan_speed = 100
; min_print_speed = 15
; min_skirt_length = 10
; notes = Profile for Sharebot !
; nozzle_diameter = 0.35
; only_retract_when_crossing_perimeters = 0
; ooze_prevention = 0
; output_filename_format = [input_filename_base].gcode
; perimeter_acceleration = 0
; post_process = 
; print_center = 69,50
; resolution = 0.01
; retract_before_travel = 0
; retract_layer_change = 0
; retract_length = 2
; retract_length_toolchange = 10
; retract_lift = 0
; retract_restart_extra = 0
; retract_restart_extra_toolchange = 0
; retract_speed = 30
; skirt_distance = 4
; skirt_height = 1
; skirts = 2
; slowdown_below_layer_time = 10
; spiral_vase = 0
; standby_temperature_delta = -5
; start_gcode = M204 S1800\nG28 ;Home all axis\nT0\nM106 S127 ; EXTRUDER FAN ON\nG1 Z10 F1000\nG92 E0\nM117 Printing...
; temperature = 215
; threads = 2
; toolchange_gcode = 
; travel_speed = 100
; use_firmware_retraction = 0
; use_relative_e_distances = 0
; vibration_limit = 0
; wipe = 0
; z_offset = 0
; dont_support_bridges = 1
; extrusion_width = 0.4
; first_layer_height = 0.3
; infill_only_where_needed = 0
; interface_shells = 0
; layer_height = 0.2
; raft_layers = 0
; seam_position = aligned
; support_material = 0
; support_material_angle = 45
; support_material_enforce_layers = 3
; support_material_extruder = 1
; support_material_extrusion_width = 0.3
; support_material_interface_extruder = 1
; support_material_interface_layers = 3
; support_material_interface_spacing = 1
; support_material_interface_speed = 40
; support_material_pattern = rectilinear-grid
; support_material_spacing = 5
; support_material_speed = 40
; support_material_threshold = 45
; bottom_solid_layers = 4
; bridge_speed = 40
; external_perimeter_speed = 30
; extra_perimeters = 1
; fill_angle = 45
; fill_density = 40%
; fill_pattern = honeycomb
; gap_fill_speed = 20
; infill_every_layers = 1
; infill_extruder = 1
; infill_extrusion_width = 0.7
; infill_speed = 40
; overhangs = 1
; perimeter_extruder = 1
; perimeter_extrusion_width = 0.38
; perimeter_speed = 35
; perimeters = 3
; small_perimeter_speed = 35
; solid_fill_pattern = rectilinear
; solid_infill_below_area = 35
; solid_infill_every_layers = 0
; solid_infill_extrusion_width = 0.5
; solid_infill_speed = 40
; thin_walls = 1
; top_infill_extrusion_width = 0.35
; top_solid_infill_speed = 40
; top_solid_layers = 5
